!!! OTL: Berkowitz307
!!! Chapter: 1
!!! Section: III
!!! Page: 74
!!! Mode: 
!!! Encoder: DJB
**kern
*staff1
*I"Piano
=1-
*clefG2
*k[b-e-]
*g:
*M2/4
8d/L
8b-/J
8b-/L
8d/J
=2
8c/L
8a/J
8a/L
8c/J
=3
8g\L
8ee-\J
8dd\L
8cc#\J
=4
4dd\
8r
8dd\
=5
8ee-\L
8g\J
8dd\L
8g\J
=6
8ee-\L
8g\J
8dd\L
8g\J
=7
8ee-\L
8g\J
8dd/L
8f#/J
=8
8g/L
8b-/J
8a/L
8d/J
=9
8c/L
8a/J
8B-/L
8g/J
=10
!!linebreak:original
8c/L
8a/J
8cc\L
16b-\L
16a\JJ
=11
8b-/L
8d/J
8a/L
8f#/J
=12
8g/L
8g/J
8g/
8r
==
*-
